X:1953
T:Gavotte
C:Georg Friedrich H\"andel
R:Gavotte
Z:Transcribed by Frank Nordberg - http://www.musicaviva.com
F:http://abc.musicaviva.com/tunes/handel-georg-friedrich/handel-gavotte.abc
V:1 Program 1 6 %Harpsichord
V:2 Program 1 6 bass %Harpsichord
m:Mn = o/4n/8o/8n/
m:Mn3/2 = o3/8(3n/4o/4n/4o/8n/
M:C
L:1/4
Q:1/4=188
K:G
V:1
GA|MBcde|fdgf|edcB|ADGA|
V:2
z2|G,A,B,C|D2B,G,|CB,A,G,|DCB,A,|
%
V:1
MBcde|fdgf/e/|dc/B/ MA3/2G/|"Fine"[B,2D2G2]||Ac|
V:2
G,A,B,C|D2B,C|F,G,D,D,,|G,,G,,,||F,D,|
%
V:1
BGdg|ecea|fba/g/f/e/|d/^c/B/A/ag/f/|
V:2
G,G,,B,G,|CC,C^C|DG,B,G,|A,G,F,D|
%
V:1
gf/e/fe/d/|d/^c/B/A/ag/f/|ef/g/ Me3/2d/|"D.C. al fine"[F2A2d2]|]
V:2
E,^CD,G,|A,G,F,D,|G,E,A,A,,|D,D,,|]
W:
W:
W:  From Musica Viva - http://www.musicaviva.com
W:  the Internet center for free sheet music downloads.


